!!!ONB: MCCC : ILB0174_03 : Extracted Monophonic Melody
!!!COM: Beethoven, Ludwig van
!!!OPR: Piano Sonata No.13
!!!OMV: 3
!!!SCT: Op.27 No.1
!!!ODT: 1800///
**kern
*thru
*Ipiano
*staff1
*clefG2
*k[b-e-a-d-]
*A-:
*M3/4
*MM60
=1
2c
16c
16B-
16A-
32c
32B-
=2
4.A-
8A-
8B-
8c
=3
4d-
16d-
16c
16d-
16e-
16f
16g
16a-
16f
=4
8.d
32f
32e-
8e-
8e-
8e-
8e-
=5
4.dd-
8dd-
16dd-
16cc
16b-
16a-
=6
8a-
4g
8g
16a-
16a-
16b-
16cc
=7
8ee-
4dd-
8dd-
16dd-
16cc
16b
16cc
=8
4cc
8b-
4.r
=9
8r
4bb-
4gg
8ee-
=10
4ee-
8dd
8ee
8ff
8ee-
=11
4ee-
8dd
8cc
8b-
8a
=12
4.a-
4a-
8g
=13
16f
8b
8cc
8ee
8ff
8bb
16ccc[
=14
16ccc]
8ddd
8eee-
8fff
8eee-
8ddd
16ccc[
=15
16ccc]
8bb
8bb-
8aa
8bb-
8ccc
16bb-[
=16
16bb-]
8aa-
8gg
8ff
8ee-
8dd
16dd-
=17
2cc
16cc
16b-
16a-
32cc
32b-
=18
4.a-
8a-
8b-
8cc
=19
4dd-
16dd-
16cc
16dd-
16ee-
16ff
16gg
16aa-
16ff
=20
8.dd
32ff
32ee-
8ee-
8ee-
8ee-
8ee-
=21
4.ddd-
8ddd-
16ddd-
16ccc
16bb-
16aa-
=22
8aa-
4gg
8gg
16aa-
16aa-
16bb-
16ccc
=23
16ddd-
16ddd-
16eee-
16fff
16fff
16eee-
16ddd
16eee-[
16eee-]
16eee-
16ddd
16eee-[
=24
16eee-]
16aa-
8r
4r
8r
88f
88g
88a-
88b-
88cc
88dd
88ee-
88ff
88gg
88aa-
88gg
=25
64gg
64aa-
64gg
64aa-
64gg
64aa-
64gg
64aa-
64gg
64aa-
64gg
64aa-
64gg
64aa-
64gg
64aa-
64gg
64aa-
64gg
64aa-
64gg
64aa-
64gg
64aa-
64gg
64aa-
64gg
64aa-
64gg
64aa-
64gg
64aa-
64gg
64aa-
64gg
64aa-
64gg
64aa-
64gg
64aa-
64gg
64aa-
64gg
64aa-
64gg
64aa-
64gg
64aa-
=26
4aa-
*rscale:2
*cue
32gg
32aa-
32bb-
32aa-
32gg
32ff
32ee
32ff
32gg
32ff
32ee-
32dd
32cc#
32dd
32ee-
32dd
32cc
32b-
32a
32b-
32b
32cc
32g
*rscale:1
4b-
4a
*Xcue
4a-
==
*-
